X:3014
T:Cumberland Square Eight
T:My love she's but a lassie yet
R:Reel
C:Trad.
O:Scotland
M:4/4
L:1/16
Q:1/4=120
K:D
"D"d2D2 F2A2 d2D2 D2dc|d2D2 F2A2 "A"e2E2 E2dc|"D"d2D2 F2A2 "Bm"B2g2 f2e2|"Bm"dcBA B2c2 "D"d2D2 D2dc|
"D"d2D2 F2A2 d2D2 D2dc|d2D2 F2A2 "A"e2E2 E2dc|"D"d2D2 F2A2 "Bm"B2g2 f2e2|"Bm"dcBA B2c2 "D"d2D2 D2fg|
"D"a2f2 g2e2 f2d2 d2fg|a2f2 gfga "Em"b2e2 e2fg|"D"a2f2 g2e2 f2d2 e2c2|"Bm"dcBA B2c2 "D"d2D2 D2fg|
"D"a2f2 g2e2 f2d2 d2fg|a2f2 gfga "Em"b2e2 e2fg|"D"a2f2 g2e2 f2d2 e2c2|"Bm"dcBA B2c2 "D"d3 z d3 z|]

